X:6
T:dr Niidläträger Bb  ABCD
T:Daniel Wallimann  (* 30.1.1970)
T:Dirigenten-Notiz  Edi Gasser
C:Unterwalden (CH)
%%partsbox
%P:ABCD
M:4/4
R:Naturjodel
L:1/4
K:Bb 
[P:A] B,CDF | d2B2 | e2ed | c4 | CDEF | 
e2c2 | FEee | d4 | B,CDF | d2B2 | 
e2ed | c4 | CDEF | e2c2 | Fecd | B3 || 
M:4/4
[P:B] F/B/ | cF/c/ee | ddBF/B/ | cF/c/fe | d3F/B/ | 
cF/c/ee | d>cBG/B/ | e>ecd | B3 || 
M:4/4
[P:C] F/D/ | CF/G/ Ac | ccB2 | GGAB | A3F/D/ | CF/G/Ac | 
ccB2 | GBAG | F3F/D/ | CF/G/Ac | ccB2 | GGAB | 
A3F/D/ | CF/G/ Ac | ccB2 | GBAG | F3 || 
M:4/4
L:1/8
[P:D] FF| DFded2FF | DFded2FF | EFde ccBc | 
d2d>ed2FF | DFded2FF | DFded2FF | EFdec2d2 | 
B6FF | DFded2FF | DFded2FF | EFde ccBc | 
e2e2d2FF | DFded2FF | DFded2FF | EFdec2d2 | B6 |]
W:
%W:Reihenfolge: A - B - C - D
W:notiert Edi Gasser. Angaben Daniel Wallimann
W:UJV-Naturjodelsammlung: Code-Nr: 29-04
W:http://www.naturjodler.ch/code 29.htm  (with AUDIO)
%May 28, 2018

